SVG/mars-stroke-h.svg

<?xml version="1.0" encoding="utf-8"?>
<!-- Generated by IcoMoon.io -->
<!DOCTYPE svg PUBLIC "-//W3C//DTD SVG 1.1//EN" "http://www.w3.org/Graphics/SVG/1.1/DTD/svg11.dtd">
<svg version="1.1" xmlns="http://www.w3.org/2000/svg" xmlns:xlink="http://www.w3.org/1999/xlink" width="15" height="14" viewBox="0 0 15 14">
<path fill="#444444" d="M14.852 7.148q0.148 0.148 0.148 0.352t-0.148 0.352l-2.297 2.297q-0.070 0.078-0.176 0.078t-0.176-0.078l-0.352-0.352q-0.078-0.070-0.078-0.176t0.078-0.176l1.445-1.445h-2.297v1.75q0 0.109-0.070 0.18t-0.18 0.070h-0.5q-0.109 0-0.18-0.070t-0.070-0.18v-1.75h-1.031q-0.187 1.695-1.465 2.848t-3.004 1.152q-1.305 0-2.391-0.68t-1.656-1.844-0.422-2.492q0.117-1.039 0.688-1.918t1.469-1.422 1.945-0.629q1.211-0.094 2.281 0.41t1.75 1.453 0.805 2.121h1.031v-1.75q0-0.109 0.070-0.18t0.18-0.070h0.5q0.109 0 0.18 0.070t0.070 0.18v1.75h2.297l-1.445-1.445q-0.078-0.070-0.078-0.176t0.078-0.176l0.352-0.352q0.070-0.078 0.176-0.078t0.176 0.078zM4.5 11q1.445 0 2.473-1.027t1.027-2.473-1.027-2.473-2.473-1.027-2.473 1.027-1.027 2.473 1.027 2.473 2.473 1.027z"></path>
</svg>

<svg xmlns="http://www.w3.org/2000/svg" viewBox="0 0 15 14"><path d="M14.852 7.148Q15 7.296 15 7.5t-.148.352l-2.297 2.297q-.07.077-.176.077t-.177-.078l-.352-.353q-.077-.07-.077-.176t.078-.175L13.297 8H11v1.75q0 .11-.07.18t-.18.07h-.5q-.11 0-.18-.07T10 9.75V8H8.967q-.187 1.695-1.465 2.848T4.5 12q-1.306 0-2.392-.68T.452 9.476.03 6.984q.117-1.04.688-1.918t1.47-1.422 1.944-.63q1.21-.093 2.28.41t1.75 1.454.806 2.12h1.03V5.25q0-.108.07-.18t.18-.07h.5q.11 0 .18.07t.07.18V7h2.298L11.85 5.555q-.077-.07-.077-.176t.078-.176l.353-.352q.07-.078.176-.078t.175.078zM4.5 11q1.445 0 2.473-1.027T8 7.5 6.973 5.027 4.5 4 2.027 5.027 1 7.5t1.027 2.473T4.5 11z" /></svg>
